X: 22325
T: La Toque Bleu
R: reel
M: 4/4
K: Gmajor
|:d2 BG d2 BG|FGAB cBAG|d2 BG d2 BG|FGAF G4|
d2 BG d2 BG|FGAB cBAG|d2 BG d2 BG|FGAF G4:|
|:G2 GG FGAB|cAdc BcAF|G2 GG BGdc|BcAF G4|
G2 GG FGAB|cAdc BcAF|G2 GG BGdc|BcAF G4:|

